X: 1686
T: March of the Cabrettaires
C:trad French tune from the Auvergne
B: australian traditional tunes wiki
M:4/4
L:1/8
R: March
Q: 1/4=100
K:D
V:1 
Ade|"D"f2f2fg fe|d4-d Ade|f2d2c2d2|"A"e4-eA ef|
"G"g2g2ga gf|"A"e6fg|a3b ag fe|"D"dd/d/ cB AA de|
f2f2fg fe|d4-d Ade|f2d2c2d2|"A"ee/e/ ee eA ef|
"G"g2g2ga gf|"A"e6fg|a3b ag fe|"D"d2"A"c2"D"d3a||
"D"fa faf3a|"G"b>a gf "A"ge2g|eg ege3g|a>g fe "D"fd2a|
"D"fa faf3a|"G"b>a gf "A"ge2g|eg ege3g|a>g f"A7"e "D"d4||
% abcbook-tune_id 6342d53a2bd608e1c427a887


% abcbook-boost 0
% abcbook-tablature 
% abcbook-transpose 
% abcbook-lastupdated 1665324377912
% abcbook-soundfonts 
% abcbook-repeats 1
% NFF Book 2015

